X: 1
T: John Brown's March
S: Portland Coll. v.1
R: reel
Z: 2019 John Chambers <jc:trillian.mit.edu>
M: C|
L: 1/8
K: G
(3DEF |\
"G"G2G2- G2e2 | d2d2 BAG2 | "D7"A2AB cBA2 |\
[1,3 "C"GE- ED E2 :|2,4 "G"G6 :|
|: ef |\
"G"g2f2 e2d2 | "C"edef gfe2 |\
[1,3 "G"d2B2- B2AG | "D"Bd- de d2 :|\
[2,4 "G"d2B2- B2A2 | "G"G6 :|
